school977/img/check.svg

<svg width="30" height="30" viewBox="0 0 30 30" fill="none" xmlns="http://www.w3.org/2000/svg">
<path d="M21.6307 10.2404C22.0885 10.6982 22.0885 11.4402 21.6307 11.8977L13.7691 19.7596C13.3113 20.2171 12.5695 20.2171 12.1117 19.7596L8.36929 16.0169C7.91153 15.5594 7.91153 14.8174 8.36929 14.3598C8.82683 13.9021 9.56886 13.9021 10.0264 14.3598L12.9403 17.2737L19.9734 10.2404C20.4311 9.78287 21.1732 9.78287 21.6307 10.2404ZM30 15C30 23.2912 23.2901 30 15 30C6.70876 30 0 23.2901 0 15C0 6.70876 6.7099 0 15 0C23.2912 0 30 6.7099 30 15ZM27.6562 15C27.6562 8.00423 21.9949 2.34375 15 2.34375C8.00423 2.34375 2.34375 8.00514 2.34375 15C2.34375 21.9958 8.00514 27.6562 15 27.6562C21.9958 27.6562 27.6562 21.9949 27.6562 15Z" fill="#474747"/>
</svg>

<svg width="30" height="30" fill="none" xmlns="http://www.w3.org/2000/svg"><path d="M21.63 10.24c.459.458.459 1.2 0 1.658l-7.86 7.862c-.459.457-1.2.457-1.658 0l-3.743-3.743a1.171 1.171 0 1 1 1.657-1.657l2.914 2.914 7.033-7.034a1.172 1.172 0 0 1 1.658 0zM30 15c0 8.291-6.71 15-15 15-8.291 0-15-6.71-15-15C0 6.709 6.71 0 15 0c8.291 0 15 6.71 15 15zm-2.344 0c0-6.996-5.661-12.656-12.656-12.656C8.004 2.344 2.344 8.005 2.344 15c0 6.996 5.661 12.656 12.656 12.656 6.996 0 12.656-5.661 12.656-12.656z" fill="#474747"/></svg>
